svg/roman_numeral_9.svg

<svg xmlns="http://www.w3.org/2000/svg" viewBox="0 0 24 24"><path d="M11 7v2h-1v6h1v2H7v-2h1V9H7V7zm1 0 2 5-2 5h2l1-2.5 1 2.5h2l-2-5 2-5h-2l-1 2.5L14 7z"/></svg>

<?xml version="1.0" encoding="UTF-8"?><!DOCTYPE svg PUBLIC "-//W3C//DTD SVG 1.1//EN" "http://www.w3.org/Graphics/SVG/1.1/DTD/svg11.dtd"><svg xmlns="http://www.w3.org/2000/svg" xmlns:xlink="http://www.w3.org/1999/xlink" version="1.1" id="mdi-roman-numeral-9" width="24" height="24" viewBox="0 0 24 24"><path d="M11 7V9H10V15H11V17H7V15H8V9H7V7H11M12 7L14 12L12 17H14L15 14.5L16 17H18L16 12L18 7H16L15 9.5L14 7H12Z" /></svg>
